X: 114
T: Je remerchi dieu
N: Derived from Mar3014-Je_remerchi_dieu.krn
C: Johannes Martini
%%abc-version 2.0
%%abcx-abcm2ps-target-version 5.9.1 (29 Sep 2008)
%%abc-creator hum2abc beta
%%abcx-conversion-date 2019/02/17 07:19:43
%%abc-edited-by Jesse Rodin
%%abc-edited-by Chris Gage 11-06-2014
%%abcx-initial-encoding-date 2015/03/01/
%%humdrum-veritas 1569447791
%%humdrum-veritas-data 4019109883
%%linebreak <none>
%%barnumbers 0
L: 1/4
M: 2/1
Q: 1/2=120
V: 1 clef=treble
V: 2 clef=treble-8
V: 3 clef=treble-8
K: C
[V:1] z8 | 
[V:2] z8 | 
[V:3] c6B2 | 
[V:1] z8 | 
[V:2] z8 | 
[V:3] c4d4 | 
[V:1] z8 | 
[V:2] c6B2 | 
[V:3] c2e4d2 | 
[V:1] z8 | 
[V:2] c4d4 | 
[V:3] c2BAG2B2 | 
[V:1] z8 | 
[V:2] c2e4d2 | 
[V:3] A2c4B2 | 
[V:1] z8 | 
[V:2] c2BAG2B2 | 
[V:3] c2G3FED | 
[V:1] z8 | 
[V:2] A2c4B2 | 
[V:3] F2E2D4 | 
[V:1] z2G2A2c2 | 
[V:2] c8 | 
[V:3] C4F2A2 | 
[V:1] B2cde2d2- | 
[V:2] g8 | 
[V:3] G2c3BG2 | 
[V:1] d2cBA4 | 
[V:2] f8 | 
[V:3] B2c2d4 | 
[V:1] G4c4 | 
[V:2] g2G2A2c2 | 
[V:3] G4z4 | 
[V:1] dcBAc2B2- | 
[V:2] B2cde2d2- | 
[V:3] z8 | 
[V:1] BAG4^F2 | 
[V:2] d2cBA4 | 
[V:3] z2G2A2c2 | 
[V:1] G4z4 | 
[V:2] G4E2F2 | 
[V:3] B2cde2d2- | 
[V:1] z8 | 
[V:2] G2A3Bcd | 
[V:3] d2cBA4 | 
[V:1] z8 | 
[V:2] e2d4c2- | 
[V:3] G3FG2E2 | 
[V:1] z4E2F2 | 
[V:2] c2B2c3d | 
[V:3] D4C4 | 
[V:1] G2A3Bcd | 
[V:2] e2f3ga2 | 
[V:3] z4F4 | 
[V:1] e2d3cc2- | 
[V:2] g4e2c2 | 
[V:3] G4A4 | 
[V:1] c2B2c3B | 
[V:2] d4c4 | 
[V:3] G4z4 | 
[V:1] G2A4F2 | 
[V:2] z2e2f2d2 | 
[V:3] c4d4 | 
[V:1] G2E2F2ED | 
[V:2] c4z2B2 | 
[V:3] e4d4 | 
[V:1] CDEFG2A2- | 
[V:2] c2A2G2c2 | 
[V:3] z4C4 | 
[V:1] A2B3AG2- | 
[V:2] A2d2G4 | 
[V:3] D4E4 | 
[V:1] G2^F2G4 | 
[V:2] A4G4 | 
[V:3] D4z4 | 
[V:1] z8 | 
[V:2] z8 | 
[V:3] C4D4 | 
[V:1] z4C4 | 
[V:2] z8 | 
[V:3] E3DE2F2- | 
[V:1] D4E3D | 
[V:2] z8 | 
[V:3] F2EDC2c2- | 
[V:1] E2F4ED | 
[V:2] c4d4 | 
[V:3] c2A2B4 | 
[V:1] C4c4 | 
[V:2] e3de2f2- | 
[V:3] A2A3GFE | 
[V:1] d4e3d | 
[V:2] f2edc3B | 
[V:3] D4z4 | 
[V:1] e2f4ed | 
[V:2] c2d4cB | 
[V:3] z2D4E2 | 
[V:1] c3Bc2d2- | 
[V:2] ABcde2f2 | 
[V:3] F4E2D2 | 
[V:1] d2cBA4 | 
[V:2] d2g4^f2 | 
[V:3] G4d4 | 
[V:1] z2G2-GFE2 | 
[V:2] g8- | 
[V:3] B2e3dc2 | 
[V:1] D2E4DC | 
[V:2] g8 | 
[V:3] B2c4BA | 
[V:1] B,2C4B,2 | 
[V:2] g4z2g2- | 
[V:3] G2E2F2G2 | 
[V:1] C2E2F2G2- | 
[V:2] gfe2d2e2- | 
[V:3] C4z2C2- | 
[V:1] GEF2G2E2 | 
[V:2] e2dcB2c2- | 
[V:3] C2D2E2C2 | 
[V:1] D4C2c2 | 
[V:2] c2B2c2e2 | 
[V:3] G4C4 | 
[V:1] d2e4d2- | 
[V:2] f2g3ef2 | 
[V:3] z2C4D2 | 
[V:1] dcc4B2 | 
[V:2] g2e2d4 | 
[V:3] E2C2G4 | 
[V:1] c4e4 | 
[V:2] c4g3f | 
[V:3] C4z2G2- | 
[V:1] d2c2d3c | 
[V:2] g2e2d4 | 
[V:3] G2A2B2G2 | 
[V:1] B2A2B4 | 
[V:2] z2f2g3f | 
[V:3] d4G4 | 
[V:1] G4B2c2 | 
[V:2] e2d2e4 | 
[V:3] z2G4A2 | 
[V:1] d2cBA4 | 
[V:2] d2g4^f2 | 
[V:3] B2G2d4 | 
[V:1] G4A4 | 
[V:2] g4c3B | 
[V:3] G4z2C2- | 
[V:1] G2F2G3F | 
[V:2] c2A2G4 | 
[V:3] C2D2E2C2 | 
[V:1] E2D2E4 | 
[V:2] z2B2c3B | 
[V:3] G4C4 | 
[V:1] C4E2F2 | 
[V:2] A2G2A4 | 
[V:3] z2C4D2 | 
[V:1] G2FED4 | 
[V:2] G2c4B2 | 
[V:3] E2C2G4 | 
[V:1] C8 |]  
[V:2] c8 |]  
[V:3] C8 |]  



